X: 42743
T: White Crow, The
R: reel
M: 4/4
K: Cmajor
c2cB cGGA|c2cd eage|c2dc B2Ac|BG G/G/G BcdB:|
gc c/c/c cBAa|gc c/c/c agea|gc c/c/c cBAc|BGGA BcdB|
gc c/c/c cBAa|gc c/c/c age^f|gage c2dc|B2GA BABd|
|:c2cB cGGA|c2cd eage|c2dc B2Ac|BG G/G/G BcdB:|
aA A/A/A c2BG|Agab ageg|aA A/A/A c2dc|BGGA BcdB|
aA A/A/A c2BG|Agab age^f|gage c2dc|B2GA BGBd||

